X:973
T:Xota Pumarega (XA 54)
T:Xota Pumariega (XA 54)
T:Jota Pumarega (XA 54)
R:Xota
C:Tradicional
S:Música Tradicional Asturiana, (C) Tello & Tito. Asturies, 2001.
S:http://pagina.de/MusTradAst <telloytito@asturies.org>
A:Asturies
Z:Métodu de Xuacu Amieva 54
M:3/8
L:1/8
Q:3/8=85
K:C
E/D/E/F/
|G/F/E/D/ ~E|C~EC|.E E/D/ C|C~EC|
|.E E/D/ C|C~EC|G F/E/ D-|D D/E/D/C/|
|B, D/E/D/C/|B,GG|~AGG|~A G/F/E/D/|C2 C|"fin"
|: D/E/F/D/E/C/|~DB,C|D G/F/E/D/|~ECC|
|D/E/F/D/E/C/|~DB,C|D G/F/E/D/|C2 C :|
|CEE|FG~E|CEE|FG~E|
|: CEE|A3-|A~GF|E2 F|B,CD|F2 ~E|[1 CEE|F2 ~E :|[2 E/F/E/D/E/F/|
"repetir hasta fin"
